X: 21
T: Banshee, The
C: James McMahon
Z: Stuart Morison
S: https://thesession.org/tunes/8#setting53700
R: reel
M: 4/4
L: 1/8
K: Gmaj
|: G3D EDB,D|GFGB d2 (3Bcd|eged BAGA|BAGE EDDE|
G2 GD EDB,D|GFGB d2 (3Bcd|eged BAGA|1 BAGE EDDE:|2 BAGE ED D2||
|: eaag efge|dBBA B2 Bd|eB ~B2 gBfB|eBBA B2 (3Bcd|
eaag efge|dBBA B2 (3Bcd|eged BAGA|1 BAGE EDD2:|2 BAGE EDDE

%-------------------- TUNE SEPARATOR --------------------%

